src/icons/svg/AddNew.svg

<!-- Generated by IcoMoon.io -->
<svg version="1.1" xmlns="http://www.w3.org/2000/svg" width="24" height="24" viewBox="0 0 24 24">
<title>add-new</title>
<path fill="#444" d="M23.922 13.669h-10.252v10.252h-3.417v-10.252h-10.252v-3.417h10.252v-10.252h3.417v10.252h10.252v3.417z"></path>
</svg>

<svg width="24" height="24" viewBox="0 0 24 24" fill="none" xmlns="http://www.w3.org/2000/svg">
<g clip-path="url(#clip0)">
<path d="M23.922 13.669H13.67V23.921H10.253V13.669H0.000976562V10.252H10.253V0H13.67V10.252H23.922V13.669V13.669Z" fill="#1C2125"/>
</g>
<defs>
<clipPath id="clip0">
<rect width="24" height="24" fill="white"/>
</clipPath>
</defs>
</svg>
